packages/icon/src/svg/arrow-down.icon.svg

<svg width="24" height="24" viewBox="0 0 24 24" fill="none" xmlns="http://www.w3.org/2000/svg">
<path fill-rule="evenodd" clip-rule="evenodd" d="M11.5 3C11.2239 3 11 3.22386 11 3.5V17.1658L6.52101 12.6868C6.42338 12.5892 6.26508 12.5892 6.16745 12.6868L5.10679 13.7474C5.00916 13.8451 5.00916 14.0034 5.10679 14.101L12.0011 20.9953L18.8954 14.101C18.993 14.0034 18.993 13.8451 18.8954 13.7475L17.8347 12.6868C17.7371 12.5892 17.5788 12.5892 17.4812 12.6868L13 17.1679V3.5C13 3.22386 12.7762 3 12.5 3H11.5Z" fill="white"/>
</svg>

<svg aria-label="arrow down icon" viewBox="0 0 24 24"><path fill-rule="evenodd" clip-rule="evenodd" d="M11.5 3a.5.5 0 00-.5.5v13.666l-4.479-4.48a.25.25 0 00-.354 0l-1.06 1.061a.25.25 0 000 .354L12 20.995l6.894-6.894a.25.25 0 000-.354l-1.06-1.06a.25.25 0 00-.354 0L13 17.167V3.5a.5.5 0 00-.5-.5h-1z"/></svg>
